assets/img/icons/duotone-icons/Design/Magic.svg

<?xml version="1.0" encoding="UTF-8"?>
<svg width="24px" height="24px" viewBox="0 0 24 24" version="1.1" xmlns="http://www.w3.org/2000/svg" xmlns:xlink="http://www.w3.org/1999/xlink">
    <!-- Generator: Sketch 52.2 (67145) - http://www.bohemiancoding.com/sketch -->
    <title>Stockholm-icons / Design / Magic</title>
    <desc>Created with Sketch.</desc>
    <g id="Stockholm-icons-/-Design-/-Magic" stroke="none" stroke-width="1" fill="none" fill-rule="evenodd">
        <rect id="bound" x="0" y="0" width="24" height="24"></rect>
        <path d="M1,12 L1,14 L6,14 L6,12 L1,12 Z M0,10 L20,10 C20.5522847,10 21,10.4477153 21,11 L21,15 C21,15.5522847 20.5522847,16 20,16 L0,16 C-0.55228475,16 -1,15.5522847 -1,15 L-1,11 C-1,10.4477153 -0.55228475,10 0,10 Z" id="Rectangle-154" fill="#335EEA" transform="translate(10.000000, 13.000000) rotate(-225.000000) translate(-10.000000, -13.000000) "></path>
        <path d="M17.5,12 L18.5,12 C18.7761424,12 19,12.2238576 19,12.5 L19,13.5 C19,13.7761424 18.7761424,14 18.5,14 L17.5,14 C17.2238576,14 17,13.7761424 17,13.5 L17,12.5 C17,12.2238576 17.2238576,12 17.5,12 Z M20.5,9 L21.5,9 C21.7761424,9 22,9.22385763 22,9.5 L22,10.5 C22,10.7761424 21.7761424,11 21.5,11 L20.5,11 C20.2238576,11 20,10.7761424 20,10.5 L20,9.5 C20,9.22385763 20.2238576,9 20.5,9 Z M21.5,13 L22.5,13 C22.7761424,13 23,13.2238576 23,13.5 L23,14.5 C23,14.7761424 22.7761424,15 22.5,15 L21.5,15 C21.2238576,15 21,14.7761424 21,14.5 L21,13.5 C21,13.2238576 21.2238576,13 21.5,13 Z" id="Combined-Shape" fill="#335EEA" opacity="0.3"></path>
    </g>
</svg>

<svg width="24" height="24" viewBox="0 0 24 24" xmlns="http://www.w3.org/2000/svg"><g fill="none" fill-rule="evenodd"><path d="M0 0h24v24H0z"/><path d="M17.071 7.343L15.657 5.93 12.12 9.464l1.415 1.415 3.535-3.536zm2.121.707L5.05 22.192a1 1 0 01-1.414 0L.808 19.364a1 1 0 010-1.414L14.95 3.808a1 1 0 011.414 0l2.828 2.828a1 1 0 010 1.414z" fill="#335EEA"/><path d="M17.5 12h1a.5.5 0 01.5.5v1a.5.5 0 01-.5.5h-1a.5.5 0 01-.5-.5v-1a.5.5 0 01.5-.5zm3-3h1a.5.5 0 01.5.5v1a.5.5 0 01-.5.5h-1a.5.5 0 01-.5-.5v-1a.5.5 0 01.5-.5zm1 4h1a.5.5 0 01.5.5v1a.5.5 0 01-.5.5h-1a.5.5 0 01-.5-.5v-1a.5.5 0 01.5-.5z" fill="#335EEA" opacity=".3"/></g></svg>
